src/shared/assets/image/calendar/7-jule.svg

<svg width="24" height="24" viewBox="0 0 24 24" fill="none" xmlns="http://www.w3.org/2000/svg">
<g clip-path="url(#clip0_1_395)">
<path d="M19.5 2H18V0.5C18 0.224 17.776 0 17.5 0C17.224 0 17 0.224 17 0.5V2H7V0.5C7 0.224 6.776 0 6.5 0C6.224 0 6 0.224 6 0.5V2H4.5C2.019 2 0 4.019 0 6.5V19.5C0 21.981 2.019 24 4.5 24H5.5C5.776 24 6 23.776 6 23.5C6 23.224 5.776 23 5.5 23H4.5C2.57 23 1 21.43 1 19.5V9H23V13.5C23 13.776 23.224 14 23.5 14C23.776 14 24 13.776 24 13.5V6.5C24 4.019 21.981 2 19.5 2ZM1 8V6.5C1 4.57 2.57 3 4.5 3H19.5C21.43 3 23 4.57 23 6.5V8H1Z" fill="#474A55"/>
<path d="M4.72 21.07C4.61333 21.07 4.52667 21.0467 4.46 21C4.4 20.9467 4.36333 20.88 4.35 20.8C4.34333 20.7133 4.36333 20.6167 4.41 20.51L7.16 14.25C7.22 14.1167 7.29 14.0233 7.37 13.97C7.45667 13.91 7.55 13.88 7.65 13.88C7.75 13.88 7.84 13.91 7.92 13.97C8.00667 14.0233 8.07667 14.1167 8.13 14.25L10.89 20.51C10.9433 20.6167 10.9633 20.7133 10.95 20.8C10.9433 20.8867 10.91 20.9533 10.85 21C10.79 21.0467 10.7067 21.07 10.6 21.07C10.48 21.07 10.3833 21.04 10.31 20.98C10.2367 20.9133 10.1767 20.82 10.13 20.7L9.39 18.99L9.79 19.2H5.49L5.9 18.99L5.17 20.7C5.11 20.8267 5.04667 20.92 4.98 20.98C4.91333 21.04 4.82667 21.07 4.72 21.07ZM7.64 14.91L6.03 18.7L5.79 18.51H9.49L9.27 18.7L7.66 14.91H7.64ZM12.5052 21C12.3718 21 12.2685 20.9633 12.1952 20.89C12.1218 20.8167 12.0852 20.7133 12.0852 20.58V16.56C12.0852 16.4267 12.1218 16.3233 12.1952 16.25C12.2685 16.1767 12.3718 16.14 12.5052 16.14H14.4552C14.8418 16.14 15.1585 16.19 15.4052 16.29C15.6518 16.3833 15.8352 16.5267 15.9552 16.72C16.0752 16.9067 16.1352 17.14 16.1352 17.42C16.1352 17.7267 16.0252 17.9867 15.8052 18.2C15.5918 18.4133 15.3118 18.54 14.9652 18.58V18.45C15.3785 18.4633 15.7018 18.58 15.9352 18.8C16.1752 19.02 16.2952 19.3067 16.2952 19.66C16.2952 20.0733 16.1418 20.4 15.8352 20.64C15.5285 20.88 15.0952 21 14.5352 21H12.5052ZM12.8552 20.45H14.5052C14.8318 20.45 15.0818 20.38 15.2552 20.24C15.4352 20.0933 15.5252 19.8867 15.5252 19.62C15.5252 19.3533 15.4352 19.15 15.2552 19.01C15.0818 18.87 14.8318 18.8 14.5052 18.8H12.8552V20.45ZM12.8552 18.25H14.4152C14.7152 18.25 14.9485 18.18 15.1152 18.04C15.2885 17.9 15.3752 17.7067 15.3752 17.46C15.3752 17.2133 15.2885 17.0233 15.1152 16.89C14.9485 16.7567 14.7152 16.69 14.4152 16.69H12.8552V18.25ZM17.9639 21.07C17.8306 21.07 17.7272 21.0333 17.6539 20.96C17.5872 20.88 17.5539 20.77 17.5539 20.63V16.6C17.5539 16.4467 17.5939 16.3333 17.6739 16.26C17.7539 16.18 17.8672 16.14 18.0139 16.14H20.6639C20.7906 16.14 20.8839 16.1667 20.9439 16.22C21.0039 16.2733 21.0339 16.3533 21.0339 16.46C21.0339 16.5667 21.0039 16.65 20.9439 16.71C20.8839 16.7633 20.7906 16.79 20.6639 16.79H18.3639V20.63C18.3639 20.9233 18.2306 21.07 17.9639 21.07Z" fill="#474A55"/>
</g>
<g clip-path="url(#clip1_1_395)">
<path d="M19.5 2H18V0.5C18 0.224 17.776 0 17.5 0C17.224 0 17 0.224 17 0.5V2H7V0.5C7 0.224 6.776 0 6.5 0C6.224 0 6 0.224 6 0.5V2H4.5C2.019 2 0 4.019 0 6.5V19.5C0 21.981 2.019 24 4.5 24H5.5C5.776 24 6 23.776 6 23.5C6 23.224 5.776 23 5.5 23H4.5C2.57 23 1 21.43 1 19.5V9H23V13.5C23 13.776 23.224 14 23.5 14C23.776 14 24 13.776 24 13.5V6.5C24 4.019 21.981 2 19.5 2ZM1 8V6.5C1 4.57 2.57 3 4.5 3H19.5C21.43 3 23 4.57 23 6.5V8H1Z" fill="#474A55"/>
</g>
<defs>
<clipPath id="clip0_1_395">
<rect width="24" height="24" fill="white"/>
</clipPath>
<clipPath id="clip1_1_395">
<rect width="24" height="24" fill="white"/>
</clipPath>
</defs>
</svg>

<svg width="24" height="24" fill="none" xmlns="http://www.w3.org/2000/svg"><g clip-path="url(#a)" fill="#474A55"><path d="M19.5 2H18V.5a.5.5 0 0 0-1 0V2H7V.5a.5.5 0 0 0-1 0V2H4.5A4.5 4.5 0 0 0 0 6.5v13A4.5 4.5 0 0 0 4.5 24h1a.5.5 0 0 0 0-1h-1A3.5 3.5 0 0 1 1 19.5V9h22v4.5a.5.5 0 0 0 1 0v-7A4.5 4.5 0 0 0 19.5 2ZM1 8V6.5A3.5 3.5 0 0 1 4.5 3h15A3.5 3.5 0 0 1 23 6.5V8H1Z"/><path d="M4.72 21.07c-.1 0-.2-.02-.26-.07a.33.33 0 0 1-.11-.2c0-.09.01-.18.06-.29l2.75-6.26a.64.64 0 0 1 .21-.28.48.48 0 0 1 .28-.09c.1 0 .19.03.27.09.09.05.16.15.21.28l2.76 6.26c.05.1.07.2.06.29 0 .09-.04.15-.1.2a.4.4 0 0 1-.25.07.44.44 0 0 1-.29-.09.73.73 0 0 1-.18-.28l-.74-1.71.4.21h-4.3l.41-.21-.73 1.71a.88.88 0 0 1-.19.28.37.37 0 0 1-.26.09Zm2.92-6.16L6.03 18.7l-.24-.19h3.7l-.22.19-1.61-3.79h-.02ZM12.51 21a.42.42 0 0 1-.31-.11.42.42 0 0 1-.11-.31v-4.02c0-.13.03-.24.1-.31a.42.42 0 0 1 .32-.11h1.95c.38 0 .7.05.95.15.24.1.43.24.55.43.12.19.18.42.18.7 0 .3-.11.57-.33.78-.22.21-.5.34-.84.38v-.13c.4.01.73.13.97.35.24.22.36.5.36.86 0 .41-.16.74-.46.98-.31.24-.74.36-1.3.36H12.5Zm.35-.55h1.65c.32 0 .57-.07.75-.21a.75.75 0 0 0 .27-.62c0-.27-.1-.47-.27-.61a1.17 1.17 0 0 0-.75-.21h-1.65v1.65Zm0-2.2h1.56c.3 0 .53-.07.7-.21a.7.7 0 0 0 .26-.58.68.68 0 0 0-.26-.57 1.1 1.1 0 0 0-.7-.2h-1.56v1.56Zm5.1 2.82a.42.42 0 0 1-.3-.11.5.5 0 0 1-.1-.33V16.6c0-.15.03-.27.11-.34.08-.08.2-.12.34-.12h2.65c.13 0 .22.03.28.08.06.05.1.13.1.24 0 .1-.04.19-.1.25-.06.05-.15.08-.28.08h-2.3v3.84c0 .3-.13.44-.4.44Z"/></g><g clip-path="url(#b)"><path d="M19.5 2H18V.5a.5.5 0 0 0-1 0V2H7V.5a.5.5 0 0 0-1 0V2H4.5A4.5 4.5 0 0 0 0 6.5v13A4.5 4.5 0 0 0 4.5 24h1a.5.5 0 0 0 0-1h-1A3.5 3.5 0 0 1 1 19.5V9h22v4.5a.5.5 0 0 0 1 0v-7A4.5 4.5 0 0 0 19.5 2ZM1 8V6.5A3.5 3.5 0 0 1 4.5 3h15A3.5 3.5 0 0 1 23 6.5V8H1Z" fill="#474A55"/></g><defs><clipPath id="a"><path fill="#fff" d="M0 0h24v24H0z"/></clipPath><clipPath id="b"><path fill="#fff" d="M0 0h24v24H0z"/></clipPath></defs></svg>
